svgs/light/network-wired.svg

<svg xmlns="http://www.w3.org/2000/svg" viewBox="0 0 640 512"><!--! Font Awesome Pro 6.6.0 by @fontawesome - https://fontawesome.com License - https://fontawesome.com/license (Commercial License) Copyright 2024 Fonticons, Inc. --><path d="M400 32c8.8 0 16 7.2 16 16l0 96c0 8.8-7.2 16-16 16l-64 0-32 0-64 0c-8.8 0-16-7.2-16-16l0-96c0-8.8 7.2-16 16-16l160 0zM336 192l64 0c26.5 0 48-21.5 48-48l0-96c0-26.5-21.5-48-48-48L240 0c-26.5 0-48 21.5-48 48l0 96c0 26.5 21.5 48 48 48l64 0 0 48L16 240c-8.8 0-16 7.2-16 16s7.2 16 16 16l128 0 0 48-64 0c-26.5 0-48 21.5-48 48l0 96c0 26.5 21.5 48 48 48l160 0c26.5 0 48-21.5 48-48l0-96c0-26.5-21.5-48-48-48l-64 0 0-48 288 0 0 48-64 0c-26.5 0-48 21.5-48 48l0 96c0 26.5 21.5 48 48 48l160 0c26.5 0 48-21.5 48-48l0-96c0-26.5-21.5-48-48-48l-64 0 0-48 128 0c8.8 0 16-7.2 16-16s-7.2-16-16-16l-288 0 0-48zM496 352l64 0c8.8 0 16 7.2 16 16l0 96c0 8.8-7.2 16-16 16l-160 0c-8.8 0-16-7.2-16-16l0-96c0-8.8 7.2-16 16-16l64 0 32 0zm-320 0l64 0c8.8 0 16 7.2 16 16l0 96c0 8.8-7.2 16-16 16L80 480c-8.8 0-16-7.2-16-16l0-96c0-8.8 7.2-16 16-16l64 0 32 0z"/></svg>

<svg xmlns="http://www.w3.org/2000/svg" viewBox="0 0 640 512"><!--! Font Awesome Pro 6.4.0 by @fontawesome - https://fontawesome.com License - https://fontawesome.com/license (Commercial License) Copyright 2023 Fonticons, Inc. --><path d="M400 32c8.8 0 16 7.2 16 16v96c0 8.8-7.2 16-16 16H336 304 240c-8.8 0-16-7.2-16-16V48c0-8.8 7.2-16 16-16H400zM336 192h64c26.5 0 48-21.5 48-48V48c0-26.5-21.5-48-48-48H240c-26.5 0-48 21.5-48 48v96c0 26.5 21.5 48 48 48h64v48H16c-8.8 0-16 7.2-16 16s7.2 16 16 16H144v48H80c-26.5 0-48 21.5-48 48v96c0 26.5 21.5 48 48 48H240c26.5 0 48-21.5 48-48V368c0-26.5-21.5-48-48-48H176V272H464v48H400c-26.5 0-48 21.5-48 48v96c0 26.5 21.5 48 48 48H560c26.5 0 48-21.5 48-48V368c0-26.5-21.5-48-48-48H496V272H624c8.8 0 16-7.2 16-16s-7.2-16-16-16H336V192zM496 352h64c8.8 0 16 7.2 16 16v96c0 8.8-7.2 16-16 16H400c-8.8 0-16-7.2-16-16V368c0-8.8 7.2-16 16-16h64 32zm-320 0h64c8.8 0 16 7.2 16 16v96c0 8.8-7.2 16-16 16H80c-8.8 0-16-7.2-16-16V368c0-8.8 7.2-16 16-16h64 32z"/></svg>
